!!!OTL: Abendreihen
!!!ARE: Europa, Mitteleuropa, Deutschland
!!!SCT: A0282A
!!!YEM: Copyright 1995, estate of Helmut Schaffrath.
**kern
*ICvox
*Ivox
*M4/2
*k[]
*C:
=1
{1e
2e
2e
=2
1g
2f
2f
=3
1e
2d
2d
=4
1c}
{1d
=5
1e
1e
=6
1g
2f
2f
=7
1e
2d
2d
=8
1c}
{1f
=9
2.e
4d
2c
2B
=10
1A
1G
=11
1d
1d
=12
1e}
{1f
=13
2.e
4d
2c
2B
=14
1A
1G
=15
1d
1d
=16
0c}
==
!!!AGN: Romanze, Ballade, Lied
!! P. Schoeffer II: 65 Lieder 1537 No. 57.
!!!ONB: ESAC (Essen Associative Code) Database: ALTDEU
!!!AMT: simple quadruple
!!!AIN: vox
!!!EED: Helmut Schaffrath
!!!EEV: 1.0
*-
